X:1
T:Matins Opening Versicles (Morning Prayer)
C:Ancient liturgical text; chant setting traditional
S:Traditional Lutheran Morning Prayer; public domain
M:C
L:1/4
K:C
%% Minister: O Lord, open my lips
G G G G G G G G | F E D2 ||
%% People: And my mouth shall declare Your praise
E E E E | E E E E | F E D2 ||
%% Minister: Make haste, O God, to deliver me
G G G G G G G G | G G G G | F E D2 ||
%% People: Make haste to help me, O Lord
E E E E | E E E | D2 ||
%% Gloria Patri (all)
G G G G | G G G G | G G G G | G G F G | G2 E2 | D4 ||
%% People: Praise the Lord
G G G G | G G G | F E D2 ||

## Musiquik
&0VVVVVVVV.UTc)TTTT.TTTT.UTc)VVVVVVVV.VVVV.UTc)TTTT.TTT.c)VVVV.VVVV.VVVV.VVUV.fd.s)VVVV.VVV.UTc)

#Lyrics
O Lord, open my lips. And my mouth shall declare Your praise. (Psalm 51:15) Make haste, O God, to deliver me. Make haste to help me, O Lord. (Psalm 70:1) Glory be to the Father and to the Son and to the Holy Ghost; as it was in the beginning, is now, and ever shall be, world without end. Amen. Praise the Lord.

#Citations and References

Words: Psalm 51:15; Psalm 70:1; Gloria Patri — ancient; public domain.
Music: 'Matins Versicles' Traditional chant tone; ancient, public domain.
Setting: Lutheran Service Book (LSB), Morning Prayer (Matins); traditional.
copyright: public domain.

https://openhymnal.org
